X:016
T:Andante TS.016
M:2/4
L:1/8
Q:1/4=80
S:Thomas Sands’ MS,1810,Lincolnshire
R:air
C:Prefixed as ‘No.4′ in MS
O:England;Lincolnshire
Z:vmp.Ruairidh Greig, 2011
K:Gm
d|{^f/}g{f/}g dd|{c}(Bd/B/) GA|.B.c.d.e|(B2A)”_p”d|
{^f/}g{f/}g dd|{c}(Bd/B/) GA|.B.A.G.^F|(^F2G):|
|:A|[B2D2][c2F2]|[d3F3]”_p”e|dg^fg|”_f”[^f3A3D3]”_p”d|
g(g/a/ b)B|(cc/d/)He2z/e/|dG B/A/G/^F/|”sharp added”(^F2G):|]

